resources/SLDS/icons/standard/incident.svg

<svg xmlns="http://www.w3.org/2000/svg" width="100" height="100" viewBox="0 0 100 100"><path d="M38,30h4a.94.94,0,0,0,1-1V26H57v3a.94.94,0,0,0,1,1h4a.94.94,0,0,0,1-1V26a6,6,0,0,0-6-6H43a6,6,0,0,0-6,6v3A.94.94,0,0,0,38,30Z" fill="#fff"/><path d="M50,63.32a2.24,2.24,0,1,0,2.24,2.24A2.21,2.21,0,0,0,50,63.32Z" fill="#fff"/><rect x="47.77" y="50.62" width="4.48" height="11.21" rx="0.75" fill="#fff"/><path d="M74,36H26a6,6,0,0,0-6,6V74a6,6,0,0,0,6,6H74a6,6,0,0,0,6-6V42A6,6,0,0,0,74,36ZM67.12,73.78H32.91C31,73.78,30,71.39,31,69.67L48.15,42a2.11,2.11,0,0,1,3.73,0L69,69.67C70.11,71.39,69,73.78,67.12,73.78Z" fill="#fff"/></svg>

<svg xmlns="http://www.w3.org/2000/svg" height="100" width="100" viewBox="0 0 100 100" fill="#fff"><path d="M38 30h4a.9.9 0 0 0 1-1v-3h14v3a.9.9 0 0 0 1 1h4a.9.9 0 0 0 1-1v-3a6 6 0 0 0-6-6H43a6 6 0 0 0-6 6v3a.9.9 0 0 0 1 1zm12 33.3a2.2 2.2 0 1 0 2.2 2.3 2.2 2.2 0 0 0-2.2-2.3zM74 36H26a6 6 0 0 0-6 6v32a6 6 0 0 0 6 6h48a6 6 0 0 0 6-6V42a6 6 0 0 0-6-6zm-6.9 37.8H32.9c-1.9 0-2.9-2.4-1.9-4.1L48.2 42a2.1 2.1 0 0 1 3.7 0L69 69.7c1.1 1.7 0 4.1-1.9 4.1z"/><rect width="4.5" height="11.2" x="47.8" y="50.6" rx=".8"/></svg>
